X:2291
T:God Save the King
O:england
M:3/4
L:1/8
S:Armitt MS
N:  These notes have a squiggle over them which may be a trill
K:G Major
G2G2A2|""F3GA2|B2B2c2|""B3AG2|A2G2""F2|G4:||:d2d2d2|""d3cB|c2c2c2|"
"c3BA|B2cBAG|B3cd2|((3edc)""B2A2|G6||


